X: 20181
M: C
L: 1/8
K: F
V: 1 staves=3
c>d f>g a2 g>f | d2 d>d cBAG |\
c>a g>f d>c d>e | f2 f>f f2 :|\
|: f>g |\
f>a gf d3 e | f>e f>g f>a F>G |\
c>a g>f d>c d>e | f2 f>f "^Fine"f2 H:|\
|: F>G |\
c>f a>g f2 A>B | c>f a>g f2 g>a |\
b>g a>f c>a g>f | g2 g>g g2 :|\
|: b>c' |\
b.a.g.f .f.e.d.c | cdfc d2 c'>c' |
c'2 b/a/g/f/ aac'a | g>f g>a g2 FG |\
c/d/e/f/ e/f/g/a/ g/e/f/d/ c/A/B/G/ | F2 f>f "^D.C."f2 :|
V: 2
z2 |\
|: A>B |\
|: z2 |\
|:g>a |\
gfed dcBA | ABdA B2 a>a | a2 a/f/e/d/ ffaf | e>d e>f e2 CE |\
V: 2
V: 3 clef=bass middle=d
z2 |\
f2 f2 f2 f2 | f2 f2 f2 f2 | f2 f2 f2 c2 | B2 B2 c2 c2 |\
f2 f2 f2 f2 | f2 f2 f2 f2 | f2 f2 f2 B>c | f2 f>f f2 :|
|: z2 |\
f2 f2 B3 c | f2 f2 f2 f2 | f< f f2 b2 c'2 | c2 c>c c2 z2 |\
f2 f2 f2 f2 | f2 f2 f2 f2 | f2 f2 f2 bc' | f2 f>f f2 :|
|: z2 |\
f2 B2 B2 f2 | f2 c2 f2 c2 | f2 f2 f2 f2 | c2 c2 c2 c2 |\
f2 f2 f2 f2 | f2 f2 f2 f2 | b2 a2 f2 c2 | c2 c>c c2 :|
|: z2 |\
f2 f2 f2 f2 | f2 c2 f2 f2 | c2 c2 B2 c2 | f2 f>f "^D.C."f2 :|


